X: 1
T: Peggy's Jig
M: 6/8
L: 1/8
C: Mike MacDougall
Z: Toby A. Rider <darkrider1:tullochgorm.com>
R: Jig
O: Ingonish Beach
K: G
c \
| BdB GBd | cec E2 G | FAF DFA | GBG D2 c | BdB GBd |
| cec E2 G | FED AFD | G3 G | B | ded dBd | gbg d2 g | faf A2 B |
| cec B2 c | ded dBd | gbg d2 g |1 fed cAF | G3 G :|2 fed afd | g3 g |]
